app/client/src/assets/icons/blueprintjs/16px/align-left.svg

<svg xmlns="http://www.w3.org/2000/svg" xml:space="preserve" viewBox="0 0 16 16"><path fill-rule="evenodd" d="M13 13H1c-.55 0-1 .45-1 1s.45 1 1 1h12c.55 0 1-.45 1-1s-.45-1-1-1zM1 3h14c.55 0 1-.45 1-1s-.45-1-1-1H1c-.55 0-1 .45-1 1s.45 1 1 1zm0 3h8c.55 0 1-.45 1-1s-.45-1-1-1H1c-.55 0-1 .45-1 1s.45 1 1 1zm14 1H1c-.55 0-1 .45-1 1s.45 1 1 1h14c.55 0 1-.45 1-1s-.45-1-1-1zM1 12h4c.55 0 1-.45 1-1s-.45-1-1-1H1c-.55 0-1 .45-1 1s.45 1 1 1z" clip-rule="evenodd"/></svg>

<?xml version="1.0" encoding="utf-8"?>
<!-- Generator: Adobe Illustrator 17.1.0, SVG Export Plug-In . SVG Version: 6.00 Build 0)  -->
<!DOCTYPE svg PUBLIC "-//W3C//DTD SVG 1.1//EN" "http://www.w3.org/Graphics/SVG/1.1/DTD/svg11.dtd">
<svg version="1.1" id="Layer_1" xmlns="http://www.w3.org/2000/svg" xmlns:xlink="http://www.w3.org/1999/xlink" x="0px" y="0px"
	 viewBox="0 0 16 16" enable-background="new 0 0 16 16" xml:space="preserve">
<g id="Rounded_Rectangle_5">
	<g>
		<path fill-rule="evenodd" clip-rule="evenodd" d="M13,13H1c-0.55,0-1,0.45-1,1c0,0.55,0.45,1,1,1h12c0.55,0,1-0.45,1-1
			C14,13.45,13.55,13,13,13z M1,3h14c0.55,0,1-0.45,1-1c0-0.55-0.45-1-1-1H1C0.45,1,0,1.45,0,2C0,2.55,0.45,3,1,3z M1,6h8
			c0.55,0,1-0.45,1-1c0-0.55-0.45-1-1-1H1C0.45,4,0,4.45,0,5C0,5.55,0.45,6,1,6z M15,7H1C0.45,7,0,7.45,0,8c0,0.55,0.45,1,1,1h14
			c0.55,0,1-0.45,1-1C16,7.45,15.55,7,15,7z M1,12h4c0.55,0,1-0.45,1-1c0-0.55-0.45-1-1-1H1c-0.55,0-1,0.45-1,1
			C0,11.55,0.45,12,1,12z"/>
	</g>
</g>
</svg>
